icons-rebrand/svg/portrait-landscape-light.svg

<svg xmlns="http://www.w3.org/2000/svg" width="32" height="32" viewBox="0 0 32 32" fill="none"><path d="M19.5 11C19.5 10.7239 19.7239 10.5 20 10.5H24C26.4853 10.5 28.5 12.5147 28.5 15V23C28.5 25.4853 26.4853 27.5 24 27.5H17C16.7239 27.5 16.5 27.2761 16.5 27C16.5 26.7239 16.7239 26.5 17 26.5H24C25.933 26.5 27.5 24.933 27.5 23V15C27.5 13.067 25.933 11.5 24 11.5H20C19.7239 11.5 19.5 11.2761 19.5 11Z M3.5 9C3.5 6.51472 5.51472 4.5 8 4.5H16C18.4853 4.5 20.5 6.51472 20.5 9V23C20.5 25.4853 18.4853 27.5 16 27.5H8C5.51472 27.5 3.5 25.4853 3.5 23V9ZM8 5.5C6.067 5.5 4.5 7.067 4.5 9V23C4.5 24.933 6.067 26.5 8 26.5H16C17.933 26.5 19.5 24.933 19.5 23V9C19.5 7.067 17.933 5.5 16 5.5H8Z M9.5 9C9.5 9.27614 9.72386 9.5 10 9.5H14C14.2761 9.5 14.5 9.27614 14.5 9C14.5 8.72386 14.2761 8.5 14 8.5H10C9.72386 8.5 9.5 8.72386 9.5 9Z"/></svg>

<svg width="32" height="32" fill="none" xmlns="http://www.w3.org/2000/svg"><path fill-rule="evenodd" clip-rule="evenodd" d="M19.5 11a.5.5 0 0 1 .5-.5h4a4.5 4.5 0 0 1 4.5 4.5v8a4.5 4.5 0 0 1-4.5 4.5h-7a.5.5 0 0 1 0-1h7a3.5 3.5 0 0 0 3.5-3.5v-8a3.5 3.5 0 0 0-3.5-3.5h-4a.5.5 0 0 1-.5-.5Z" fill="#0F0F0F"/><path fill-rule="evenodd" clip-rule="evenodd" d="M3.5 9A4.5 4.5 0 0 1 8 4.5h8A4.5 4.5 0 0 1 20.5 9v14a4.5 4.5 0 0 1-4.5 4.5H8A4.5 4.5 0 0 1 3.5 23V9ZM8 5.5A3.5 3.5 0 0 0 4.5 9v14A3.5 3.5 0 0 0 8 26.5h8a3.5 3.5 0 0 0 3.5-3.5V9A3.5 3.5 0 0 0 16 5.5H8Z" fill="#0F0F0F"/><path fill-rule="evenodd" clip-rule="evenodd" d="M9.5 9a.5.5 0 0 1 .5-.5h4a.5.5 0 0 1 0 1h-4a.5.5 0 0 1-.5-.5Z" fill="#0F0F0F"/></svg>
